b-coins/models/deer1a.svg

<svg
        xmlns:cc="http://creativecommons.org/ns#"
        xmlns="http://www.w3.org/2000/svg"
        xml:space="preserve" width="6.9869423in"
        height="7.2717161in"
        style="fill-rule:evenodd;image-rendering:optimizeQuality;shape-rendering:geometricPrecision;text-rendering:geometricPrecision"
        viewBox="0 0 6986.9423 7479.4889"
        version="1.1"
>
<g transform="translate(-428.7951,-1985.5034)">
  <path d="M 2221.29 1986.9 c -47.0667 9.8057 -39.5276 52.819 -39.5276 90.5829 c 0 86.6324 8.7543 173.002 12.3543 259.394 c 4.0495 97.181 9.4629 199.135 0 296.453 c -15.5048 159.467 -66.4838 321.112 -105.406 476.792 c -16.3733 65.501 -14.2857 136.282 -27.1771 202.575 c -4.1181 21.1924 -7.4781 59.5886 -21.4057 76.5867 c -11.4552 13.9695 -47.2076 -4.0114 -60.941 -7.8248 c -52.339 -14.541 -139.204 -40.8495 -172.107 -86.4648 c -22.9562 -31.8324 -53.821 -54.5295 -72.0533 -90.9943 c -77.581 -155.166 -82.6552 -340.202 -163.874 -494.088 c -21.7448 -41.2 -47.4819 -94.3238 -88.5219 -119.402 c -25.6152 -15.6571 -66.3962 -2.64 -75.76 27.9962 c -9.6229 31.4933 0.6552 67.3448 4.5295 98.819 c 9.0095 73.1771 33.9086 144.354 44.0571 217.398 c 25.5086 183.672 47.6952 376.644 153.989 536.084 c 66.6095 99.9086 150.842 191.615 241.28 270.922 c 49.2686 43.2076 106.072 82.499 138.343 139.17 c 65.0362 114.206 66.7314 263.592 79.0552 390.328 c 11.6 119.295 49.8362 245.238 21.4095 365.623 c -12.2781 52.0038 -62.3505 92.8152 -79.8781 143.288 c -11.6305 33.4971 16.4381 20.9714 20.9981 39.5238 c 5.8895 23.939 -30.7238 62.0838 -46.5257 76.1638 c -21.6381 19.3181 -63.5162 59.341 -91.4057 66.701 c -67.5543 17.84 -155.996 -7.7066 -224.808 -14.4 c -96.5638 -9.3904 -184.903 -36.9105 -274.217 -72.88 c -81.1162 -32.659 -170.945 -61.4895 -231.81 -129.695 c -28.6743 -32.141 -51.7867 -85.3295 -68.7619 -123.524 c -17.0286 -38.3162 -11.6952 -85.3524 -15.6457 -125.992 c -10.1295 -104.175 2.7315 -209.417 -7.4095 -313.745 c -4.179 -42.96 0.8419 -89.1619 -5.7638 -131.756 c -12.8762 -82.9638 -37.0705 -165.768 -48.5867 -248.69 c -4.8191 -34.6857 -22.8876 -65.2038 -31.2952 -98.8152 c -20.0533 -80.2248 -50.2019 -162.541 -84.4038 -237.162 c -14.4152 -31.4476 -33.821 -84.4152 -74.5257 -88.9371 c -76.1714 -8.4647 -31.3829 120.606 -23.0552 160.579 c 2.8609 13.7333 5.2648 45.4438 14.4076 55.9962 c 22.9562 26.4876 13.4362 84.3619 26.7657 124.343 c 73.6457 220.933 33.76 445.322 33.76 671.958 c 0 63.8629 11.5886 153.909 -16.0571 212.457 c -7.5657 16.0343 -12.6324 38.0952 -28.4076 48.1752 c -37.101 23.6914 -55.1124 -10.6971 -86.4648 -25.939 c -86.6057 -42.0952 -156.137 -114.457 -181.992 -207.516 c -22.8533 -82.2895 -18.8914 -180.122 -10.7048 -264.339 c 10.7505 -110.549 6.461 -224.545 17.2952 -335.977 c 4.4952 -46.2514 22.64 -91.7181 27.1733 -138.343 c 4.5029 -46.3048 8.2057 -92.339 15.2343 -138.347 c 3.2838 -21.4971 12.9067 -51.8743 0.8229 -71.6419 c -12.7086 -20.7962 -48.2248 -25.9429 -70.4038 -27.1733 c -30.1524 -1.6762 -47.0895 45.2267 -57.2343 66.701 c -36.08 76.4038 -41.0248 166.072 -64.64 247.044 c -36.1181 123.829 -90.4 256.423 -102.937 385.387 c -17.4514 179.501 22.4343 345.17 96.3467 506.438 c 8.7352 19.0476 10.541 41.0362 20.1752 59.2914 c 56.0114 106.13 140.899 201.81 226.457 284.518 c 84.8686 82.0457 159.017 168.263 257.337 231.802 c 116.941 75.5695 256.644 147.36 392.796 179.528 c 25.2267 5.9543 55.5657 0.3924 79.0552 6.1753 c 8.7315 2.1485 3.92 19.1962 17.2914 23.4705 c 55.139 17.6114 116.583 19.539 172.933 31.2724 c 49.0629 10.2286 100.579 23.9657 150.693 28.8305 c 90.861 8.8457 182.667 13.341 274.221 22.2362 c 43.4248 4.2247 87.2267 -4.2515 130.933 0 c 90.8305 8.819 186.114 -8.7962 276.686 0 c 112.282 10.9181 223.87 31.101 335.981 41.9962 c 68.0343 6.6209 131.204 12.2019 197.634 28.8305 c 66.1333 16.5257 128.411 21.3676 190.221 52.2743 c 9.8096 4.9143 28.8305 6.9181 35.8248 15.661 c 7.9048 9.859 -13.2419 30.7314 -18.1105 39.1086 c -16.4762 28.2133 -14.6476 81.4476 -59.7105 70.8267 c -104.72 -24.7276 -202.945 -92.221 -296.45 -142.891 c -40.541 -21.9619 -96.3962 -52.2743 -138.347 -14.4 c -45.4552 41.0324 -26.1371 80.56 -15.6381 130.933 c 14.1067 67.7867 33.6495 136.59 84.8114 187.752 c 26.3352 26.3352 42.7886 44.1219 62.179 76.5829 c 7.3867 12.3771 20.48 29.421 29.6227 34.4691 c 2087 626 2361.0135 657.918 2443.6725 553.491 c 25.6686 -32.4114 55.661 -60.7733 77.4248 -96.3467 c 50.5676 -82.7848 65.1695 -183.208 95.5048 -274.217 c 20.3314 -60.9943 48.1486 -122.362 71.6457 -182.811 c 23.0705 -59.3143 59.6571 -131.924 43.2305 -197.634 c -13.4629 -53.8819 -82.2895 -96.3733 -132.983 -106.229 c -18.7276 -3.6343 -38.4914 -3.3105 -57.2419 -4.5219 c -1.8743 -0.1257 -16.8724 0.2971 -16.8724 -2.0762 c 0 -3.0362 30.9562 -9.0171 34.5867 -9.8819 c 36.1905 -8.5219 72.8533 -11.0895 108.701 -23.0476 c 45.4057 -15.1429 86.5867 -27.8171 128.461 -52.301 c 16.5029 -9.6343 31.2495 -41.28 44.0495 -46.9371 c 12.4 -5.4857 31.2 3.6305 47.3562 -5.3371 c 45.6533 -25.3714 79.7448 -65.4895 123.524 -92.2438 c 11.3371 -6.9181 27.3219 -5.5086 39.5238 -11.1162 c 166.88 -76.4876 331.09 -178.762 457.032 -318.267 c 44.6895 -49.5086 78.3619 -104.747 116.926 -158.107 c 7.0133 -9.6877 21.5429 -3.3105 31.299 -12.3543 c 22.6286 -20.9981 48.2476 -48.7162 65.8857 -74.1143 c 65.9848 -95.0362 107.737 -214.579 186.099 -301.39 c 42.541 -47.1352 109.71 -98.8419 167.989 -124.758 c 9.5619 -4.2477 23.3714 1.8285 34.5867 -2.0496 c 41.1581 -14.3048 88.4419 -45.5314 121.051 -74.1143 c 72.9029 -63.9352 103.387 -158.823 153.981 -236.347 c 25.2229 -38.6362 58.2781 -69.4438 80.2895 -111.17 c 77.3257 -146.491 133.848 -295.76 174.168 -457.029 c 16.9714 -67.8819 38.7086 -147.417 38.7086 -217.398 c 0 -33.1848 -10.2248 -68.461 -46.9371 -80.701 c -24.1371 -8.0419 -46.5676 22.6286 -55.5848 41.1733 c -26.0381 53.5429 -35.2762 124.811 -47.3562 182.811 c -6.4 30.7962 -23.0514 36.259 -37.4552 61.7638 c -13.3143 23.52 -24.3581 51.3448 -34.1905 76.5829 c -24.8 63.8133 -40.9333 134.651 -60.9181 200.103 c -34.9829 114.45 -99.5352 222.663 -179.528 311.276 c -41.5276 46 -86.7848 86.9105 -140.815 116.926 c -8.1524 4.5448 -43.6267 28.1638 -51.459 22.6514 c -8.5715 -6 13.44 -53.581 16.0571 -62.9943 c 18.9486 -68.2819 45.8514 -135.109 68.3314 -202.575 c 23.3981 -70.1448 58.3543 -134.484 84.8343 -202.575 c 29.4514 -75.7714 54.7238 -171.116 62.579 -251.985 c 3.4323 -35.3905 -24.5829 -66.7771 -59.2914 -43.6457 c -47.901 31.939 -77.9429 99.779 -107.044 147.406 c -42.2438 69.101 -94.8648 131.284 -129.699 205.044 c -41.3524 87.5467 -53.8057 187.604 -94.7162 274.217 c -115.097 243.76 -307.345 421.901 -486.255 620.08 c -80.8571 89.5771 -140.37 199.634 -239.63 271.326 c -28.3619 20.48 -83.2533 60.4038 -121.051 51.4857 c -22.8762 -5.4095 -55.4362 -12.1562 -70.8267 -31.7219 c -9.6115 -12.2019 -4.5943 -28.0381 -3.2877 -41.5771 c 4.5486 -46.64 21.2724 -85.8971 32.5371 -130.933 c 45.6267 -182.537 133.109 -355.939 188.149 -536.084 c 19.9352 -65.2419 20.8495 -132.758 37.0552 -197.634 c 29.5238 -118.065 71.3714 -236.739 83.181 -358.213 c 8.6705 -89.0857 8.4229 -181.291 25.52 -269.276 c 17.6876 -90.9029 54.4724 -182.198 63.4133 -274.217 c 8.8686 -91.2571 13.341 -182.819 22.2362 -274.217 c 6.9677 -71.539 12.7962 -143.337 19.7638 -214.93 c 2.1219 -21.8857 12.0305 -44.5029 9.8819 -66.701 c -6.2285 -63.9467 -24.2362 -134.453 -44.4686 -195.166 c -29.8667 -89.5771 -62.2057 -175.771 -100.472 -261.863 c -24.781 -55.7867 -49.3333 -118.45 -91.4057 -163.463 c -29.2267 -31.2762 -43.2343 -74.8724 -87.28 -90.1714 c -36.9105 -12.8114 -105.81 24.7771 -95.5314 68.3505 c 20.381 86.2667 89.7257 147.425 121.89 227.28 c 49.8781 123.882 50.2248 264.419 50.2248 395.269 c 0 64.7124 -8.5485 133.101 -14.8229 197.634 c -10.5257 108.343 -4.5219 215.295 -35.4019 321.158 c -31.1276 106.659 -65.6152 214.895 -89.7752 323.627 c -32.461 146.145 -53.1657 298.613 -93.0362 442.206 c -45.5314 163.912 -97.6571 326.171 -136.712 491.615 c -39.4286 167.051 -118.065 357.326 -265.154 455.375 c -26.6819 17.8133 -77.0514 57.8819 -108.697 60.9448 c -79.2267 7.7105 -177.253 -6.3962 -249.516 -39.5238 c -25.0971 -11.4895 -46.8114 -29.8705 -71.6419 -41.5771 c -27.5695 -13.021 -48.3695 -29.8705 -74.1105 -44.8876 c -10.5752 -6.179 -23.101 -5.1885 -29.2267 -17.2952 c -19.8362 -39.1048 0.6667 -93.7029 4.5219 -133.402 c 7.8058 -80.1905 21.8629 -159.691 29.6419 -239.634 c 7.0172 -72.1829 25.101 -142.815 32.1181 -214.926 c 6.4458 -66.259 -1.4819 -133.924 4.941 -200.107 c 6.6933 -68.7429 22.9486 -136.21 29.6457 -205.044 c 7.9276 -81.6076 0.4419 -173.6 -7.4133 -254.457 c -7.04 -72.3657 -3.1848 -143.227 -18.1067 -214.926 c -11.1924 -53.7029 -43.4819 -116.571 -67.939 -165.52 c -21.2457 -42.4648 -45.901 -115.623 -101.707 -121.051 c -49.7067 -4.8304 -62.9448 56.3162 -59.2914 93.8781 c 11.3638 116.796 60.9219 230.008 49.4095 348.331 c -15.9848 164.286 -69.7143 316.198 -105.413 476.792 c -29.9657 134.884 -41.8476 275.577 -55.1657 412.564 c -9.9543 102.347 -31.7448 201.832 -90.5905 286.568 c -9.4591 13.6381 -14.179 36.4876 -27.9886 46.1257 c -56.5486 39.3257 -134.171 7.3105 -192.693 0.8153 c -25.7181 -2.8686 -56.6248 0.8609 -81.5238 -5.3638 c -18.7505 -4.6667 -86.3162 -25.1238 -90.1714 -46.5181 c -2.8648 -15.9086 21.4171 -51.4095 27.5962 -66.701 c 21.44 -53.2876 36.56 -120.335 34.1638 -177.87 c -2.8648 -68.5295 -68.0838 -31.821 -90.1714 0 c -12.1029 17.4171 -28.0381 31.299 -39.1048 49.4095 c -22.3581 36.5867 -47.8781 58.4 -77.0057 88.9333 c -5.9772 6.2514 -4.3962 19.4171 -10.301 23.8895 c -6.4953 4.9409 -21.219 -6.2743 -26.7543 -9.8819 c -23.4438 -15.3143 -48.8419 -24.6057 -74.1143 -35.821 c -6.4457 -2.8648 -22.7771 -3.8781 -23.8895 -12.7733 c -2.0724 -16.6476 26.659 -48.7162 33.7714 -64.2286 c 35.3524 -77.1048 96.2743 -138.221 135.455 -212.457 c 27.0248 -51.1886 54.5714 -108.701 68.7771 -165.52 c 19.539 -78.221 22.1333 -162.274 43.6267 -239.63 c 38.3162 -137.95 101.337 -273.89 115.295 -417.505 c 6.2514 -64.2057 5.2609 -118.804 -4.5219 -182.811 c -4.3467 -28.3543 -9.261 -62.8305 -35.0057 -80.701 c -31.0781 -21.581 -58.6971 -3.181 -65.8857 31.2914 c -9.5619 45.8781 -6.2019 89.7067 -10.6971 135.874 c -3.4591 35.6152 -16.4762 69.2495 -25.1238 103.756 c -24.2857 97.1886 -82.4648 191.208 -125.15 281.63 c -36.5638 77.4248 -38.8114 170.537 -74.9562 247.044 c -33.0514 70.0114 -89.0324 120.979 -140.392 177.87 c -39.4552 43.7029 -73.9429 92.6438 -110.75 138.347 c -7.1162 8.819 -30.56 41.9962 -42.4152 41.9962 c -16.48 0 -35.4286 -59.1657 -42 -71.6419 c -40.3924 -76.5333 -68.1105 -155.07 -101.288 -234.693 c -37.28 -89.4933 -58.5486 -184.446 -94.6895 -274.217 c -25.9657 -64.4305 -70.0152 -158.602 -55.1924 -229.749 c 10.7962 -51.7714 40.8381 -99.0362 55.1924 -150.697 c 28.4571 -102.45 37.8933 -210.08 60.9181 -313.745 c 9.5352 -42.88 57.981 -118.602 28.4114 -160.579 c -26.7314 -37.9619 -82.4152 -33.8971 -100.053 9.8819 c -40.5143 100.629 -40.7124 216.095 -82.7581 313.745 c -11.8819 27.6457 -19.1733 56.0533 -30.0419 83.9962 c -1.8019 4.6171 -8.6705 28.0419 -15.661 23.8819 c -16.4533 -9.8096 -27.9924 -65.3676 -35.4019 -83.1733 c -17.0705 -40.9486 -40.4648 -75.0819 -61.341 -113.642 c -22.9752 -42.381 -43.0362 -93.0133 -77.0019 -128.461 c -25.0514 -26.141 -44.099 -62.5867 -86.4686 -46.1143 c -53.7295 20.899 -7.581 111.817 5.7562 144.933 c 56.8952 141.219 123.105 278.107 163.89 424.914 c 13.9848 50.3619 -6.72 86.8533 -23.0743 135.87 c -16.1295 48.4533 -28.16 99.3029 -44.4686 148.229 c -46.541 139.684 -71.1467 277.131 -62.5752 424.914 c 6.4495 111.093 37.8971 218.731 89.3562 316.213 c 25.7181 48.7695 95.4819 105.143 100.869 160.579 c 8.4 86.5143 -46.8876 147.509 -83.5733 219.87 c -9.2915 18.3276 -39.7257 74.7276 -59.7105 81.101 c -50.4495 16.0838 -117.867 -16.9448 -167.992 -21.8133 c -82.659 -8.0267 -177.474 -21.3943 -251.985 -61.76 c -97.8514 -53.0133 -160.225 -210.975 -170.457 -316.213 c -3.6 -37.0095 -0.141 -74.3352 -5.7639 -111.17 c -24.8419 -162.579 -13.0286 -331.31 -46.9371 -494.088 c -34.2971 -164.61 -83.3257 -336.937 -85.6457 -503.97 c -0.3085 -22.4648 -9.6342 -43.8362 -7.4095 -66.701 c 13.6571 -140.465 41.6952 -281.497 72.4648 -419.973 c 22.7619 -102.427 60.4114 -212.712 55.9962 -318.686 c -3.0781 -73.9429 -0.2095 -148.282 -7.4095 -222.339 c -12.2057 -125.524 -39.3752 -252.796 -68.3505 -375.505 c -10.9486 -46.3771 -24.339 -100.579 -54.7581 -138.347 c -14.3581 -17.8171 -31.8095 -36.5867 -57.2343 -31.2914 Z M 3177.298 3942.17 c -6.7924 1.92 -9.6838 26.7771 -11.2876 32.6019 c -9.44 34.5562 -13.2419 70.4267 -13.3676 106.229 c -0.221 63.1962 -13.4857 135.775 2.7695 197.634 c 18.0571 68.8267 71.0476 133.257 111.242 190.225 c 22.3086 31.6229 45.0362 63.0705 68.5067 93.8781 c 6.621 8.6438 17.9581 27.0971 31.299 22.061 c 42.7124 -16.1829 -16.0838 -94.2248 -26.6057 -118.408 c -53.6838 -123.352 -97.9276 -248.526 -125.573 -380.45 c -7.9047 -37.7486 -20.0114 -72.979 -26.9029 -111.17 c -0.64 -3.6152 -4.9638 -34.0495 -10.08 -32.6019 Z M 3631.043 4914.623 c -10.7695 2.4952 -31.6952 48.621 -40.7619 58.8724 c -50.8648 57.4857 -101.855 117.345 -152.328 175.623 c -6.621 7.6343 -58.621 62.7962 -28.0114 62.3276 c 89.9238 -1.3562 176.857 -97.2838 232.541 -157.143 c 16.9448 -18.2324 49.901 -39.4057 59.4133 -62.6019 c 6.4229 -15.6381 -55.139 -80.6857 -70.8533 -77.0781 Z M 3942.418 5142.817 c -14.2057 7.6343 -17.5429 31.5733 -23.9162 44.9371 c -13.5352 28.3848 -36.4876 51.9771 -52.6171 79.0552 c -45.8019 76.9029 -76.4876 158.552 -119.349 237.086 c -15.1695 27.8171 -48.941 43.2571 -60.9714 71.7905 c -9.8819 23.4933 -5.4819 60.1562 -11.8552 86.3924 c -9.6343 39.699 -59.021 104.13 -47.8057 145.707 c 18.4076 68.0838 115.89 27.5924 154.232 10.0533 c 96.541 -44.221 153.04 -135.676 239.977 -191.73 c 36.659 -23.6419 90.541 -45.8248 133.055 -55.6076 c 38.6133 -8.8952 84.7619 -10.5257 118.533 -33.2533 c 42.4648 -28.5829 42.2933 -109.81 64.3276 -154.328 c 9.1657 -18.5029 31.9429 -41.0362 35.5276 -60.9448 c 1.9733 -10.8952 -13.2419 -15.3181 -20.7543 -18.7505 c -23.6914 -10.8229 -47.3562 -21.6419 -71.6419 -31.0552 c -84.7086 -32.88 -166.358 -76.56 -251.985 -106.35 c -18.4038 -6.4 -66.4533 -32.8838 -84.7581 -23.0019 Z M 4668.106 5410.737 c -2.6933 5.3105 13.1695 12.6743 16.2552 14.1562 c 12.3543 5.9276 47.1848 14.8229 56.7962 -0.7429 c 2.2971 -3.7295 -67.12 -24.9752 -73.0514 -13.4133 Z M 5319.215 5724.653 c -17.3905 3.3867 -38.3924 -2.3962 -54.3505 2.4724 c -72.061 22.0343 -142.347 35.3029 -209.985 72.8762 c -19.4933 10.8457 -38.9105 21.84 -59.2914 30.88 c -2.099 0.9409 -17.0476 7.7066 -15.6381 10.301 c 2.1981 4.0762 17.1924 -0.9867 20.579 -1.6533 c 21.0705 -4.1029 44.3429 -12.0305 64.2324 -19.7638 c 61.3638 -23.8629 125.916 -48.9143 187.752 -70.4076 c 18.3543 -6.3734 75.3714 -9.3867 87.28 -23.8629 c 0.9371 -1.1391 -18.259 -1.2877 -20.579 -0.842 Z M 4839.211 5901.118 c -38.64 5.6571 -74.24 35.0057 -110.43 47.901 c -132.811 47.3562 -260.286 116.899 -387.859 177.821 c -36.2133 17.3181 -71.1467 37.699 -106.229 57.1657 c -8.2514 4.5714 -31.6686 13.7105 -33.6686 24.0114 c -1.8781 9.5391 29.3219 18.259 36.141 20.061 c 78.0648 20.6552 173.87 -22.8 247.044 -45.0362 c 17.7371 -5.4095 68.0114 -8.4495 79.3486 -20.0076 c 28.88 -29.4743 51.2114 -67.3448 79.0781 -98.2743 c 37.4781 -41.5543 79.5238 -73.7181 123.2 -107.836 c 16.0114 -12.499 61.9619 -54.1257 73.3752 -55.8057 Z"
        style="fill: rgb(16, 14, 12); stroke: rgb(19, 21, 22); stroke-width: 0.967619;"/>
</g>
</svg>

<svg
        xmlns:cc="http://creativecommons.org/ns#"
        xmlns="http://www.w3.org/2000/svg"
        xml:space="preserve" width="6.9869423in"
        height="7.2717161in"
        style="fill-rule:evenodd;image-rendering:optimizeQuality;shape-rendering:geometricPrecision;text-rendering:geometricPrecision"
        viewBox="0 0 6986.9423 7479.4889"
        version="1.1"
>
<g transform="translate(-428.7951,-1985.5034)">
  <path d="M 2221.29 1986.9 C 2174.2233 1996.7057 2181.7624 2039.719 2181.7624 2077.4829 C 2181.7624 2164.1153 2190.5167 2250.4849 2194.1167 2336.8769 C 2198.1662 2434.0579 2203.5796 2536.0119 2194.1167 2633.3299 C 2178.6119 2792.7969 2127.6329 2954.4419 2088.7107 3110.1219 C 2072.3374 3175.6229 2074.425 3246.4039 2061.5336 3312.6969 C 2057.4155 3333.8893 2054.0555 3372.2855 2040.1279 3389.2836 C 2028.6727 3403.2531 1992.9203 3385.2722 1979.1869 3381.4588 C 1926.8479 3366.9178 1839.9829 3340.6093 1807.0799 3294.994 C 1784.1237 3263.1616 1753.2589 3240.4645 1735.0266 3203.9997 C 1657.4456 3048.8337 1652.3714 2863.7977 1571.1526 2709.9117 C 1549.4078 2668.7117 1523.6707 2615.5879 1482.6307 2590.5097 C 1457.0155 2574.8526 1416.2345 2587.8697 1406.8707 2618.5059 C 1397.2478 2649.9992 1407.5259 2685.8507 1411.4002 2717.3249 C 1420.4097 2790.502 1445.3088 2861.6789 1455.4573 2934.7229 C 1480.9659 3118.3949 1503.1525 3311.3669 1609.4463 3470.8069 C 1676.0558 3570.7155 1760.2883 3662.4219 1850.7263 3741.7289 C 1899.9949 3784.9365 1956.7983 3824.2279 1989.0693 3880.8989 C 2054.1055 3995.1049 2055.8007 4144.4909 2068.1245 4271.2269 C 2079.7245 4390.5219 2117.9607 4516.4649 2089.534 4636.8499 C 2077.2559 4688.8537 2027.1835 4729.6651 2009.6559 4780.1379 C 1998.0254 4813.635 2026.094 4801.1093 2030.654 4819.6617 C 2036.5435 4843.6007 1999.9302 4881.7455 1984.1283 4895.8255 C 1962.4902 4915.1436 1920.6121 4955.1665 1892.7226 4962.5265 C 1825.1683 4980.3665 1736.7266 4954.8199 1667.9146 4948.1265 C 1571.3508 4938.7361 1483.0116 4911.216 1393.6976 4875.2465 C 1312.5814 4842.5875 1222.7526 4813.757 1161.8876 4745.5515 C 1133.2133 4713.4105 1110.1009 4660.222 1093.1257 4622.0275 C 1076.0971 4583.7113 1081.4305 4536.6751 1077.48 4496.0355 C 1067.3505 4391.8605 1080.2115 4286.6185 1070.0705 4182.2905 C 1065.8915 4139.3305 1070.9124 4093.1286 1064.3067 4050.5345 C 1051.4305 3967.5707 1027.2362 3884.7665 1015.72 3801.8445 C 1010.9009 3767.1588 992.8324 3736.6407 984.4248 3703.0293 C 964.3715 3622.8045 934.2229 3540.4883 900.021 3465.8673 C 885.6058 3434.4197 866.2 3381.4521 825.4953 3376.9302 C 749.3239 3368.4655 794.1124 3497.5362 802.4401 3537.5092 C 805.301 3551.2425 807.7049 3582.953 816.8477 3593.5054 C 839.8039 3619.993 830.2839 3677.8673 843.6134 3717.8484 C 917.2591 3938.7814 877.3734 4163.1704 877.3734 4389.8064 C 877.3734 4453.6693 888.962 4543.7154 861.3163 4602.2634 C 853.7506 4618.2977 848.6839 4640.3586 832.9087 4650.4386 C 795.8077 4674.13 777.7963 4639.7415 746.4439 4624.4996 C 659.8382 4582.4044 590.3069 4510.0426 564.4519 4416.9836 C 541.5986 4334.6941 545.5605 4236.8616 553.7471 4152.6446 C 564.4976 4042.0956 560.2081 3928.0996 571.0423 3816.6676 C 575.5375 3770.4162 593.6823 3724.9495 598.2156 3678.3246 C 602.7185 3632.0198 606.4213 3585.9856 613.4499 3539.9776 C 616.7337 3518.4805 626.3566 3488.1033 614.2728 3468.3357 C 601.5642 3447.5395 566.048 3442.3928 543.869 3441.1624 C 513.7166 3439.4862 496.7795 3486.3891 486.6347 3507.8634 C 450.5547 3584.2672 445.6099 3673.9354 421.9947 3754.9074 C 385.8766 3878.7364 331.5947 4011.3304 319.0577 4140.2944 C 301.6063 4319.7954 341.492 4485.4644 415.4044 4646.7324 C 424.1396 4665.78 425.9454 4687.7686 435.5796 4706.0238 C 491.591 4812.1538 576.4786 4907.8338 662.0366 4990.5418 C 746.9052 5072.5875 821.0536 5158.8048 919.3736 5222.3438 C 1036.3146 5297.9133 1176.0176 5369.7038 1312.1696 5401.8718 C 1337.3963 5407.8261 1367.7353 5402.2642 1391.2248 5408.0471 C 1399.9563 5410.1956 1395.1448 5427.2433 1408.5162 5431.5176 C 1463.6552 5449.129 1525.0992 5451.0566 1581.4492 5462.79 C 1630.5121 5473.0186 1682.0282 5486.7557 1732.1422 5491.6205 C 1823.0032 5500.4662 1914.8092 5504.9615 2006.3632 5513.8567 C 2049.788 5518.0814 2093.5899 5509.6052 2137.2962 5513.8567 C 2228.1267 5522.6757 2323.4102 5505.0605 2413.9822 5513.8567 C 2526.2642 5524.7748 2637.8522 5544.9577 2749.9632 5555.8529 C 2817.9975 5562.4738 2881.1672 5568.0548 2947.5972 5584.6834 C 3013.7305 5601.2091 3076.0082 5606.051 3137.8182 5636.9577 C 3147.6278 5641.872 3166.6487 5643.8758 3173.643 5652.6187 C 3181.5478 5662.4777 3160.4011 5683.3501 3155.5325 5691.7273 C 3139.0563 5719.9406 3140.8849 5773.1749 3095.822 5762.554 L 3021 6090 L 3478 6207 L 3744 5904 L 3634 5808 C 3614 5766 3664 5702 3668 5661 C 3680 5636 3676 5599 3685 5576 C 3698 5547 3731 5532 3746 5504 C 3789 5426 3820 5344 3865 5267 C 3882 5240 3905 5216 3931 5161 C 3940 5136 3950 5071 3963 5063 C 4011 4862 4057 4784 4085.2306 4733.1955 C 4082.3658 4717.2869 4106.6477 4681.786 4112.8268 4666.4945 C 4134.2668 4613.2069 4149.3868 4546.1595 4146.9906 4488.6245 C 4144.1258 4420.095 4078.9068 4456.8035 4056.8192 4488.6245 C 4044.7163 4506.0416 4028.7811 4519.9235 4017.7144 4538.034 C 3995.3563 4574.6207 3969.8363 4596.434 3940.7087 4626.9673 C 3934.7315 4633.2187 3936.3125 4646.3844 3930.4077 4650.8568 C 3923.9124 4655.7977 3841 4775 3722 4983 C 3693 5015 3659 5036 3643 5054 C 3587 5115 3500 5210 3410 5212 C 3379 5212 3431 5157 3438 5149 C 3488 5091 3539 5031 3590 4974 C 3599 4963 3617 4922 3631 4914 C 3657 4888 3806.762 4601.2758 3805.6496 4592.3806 C 3803.5772 4575.733 3832.3086 4543.6644 3839.421 4528.152 C 3874.7734 4451.0472 3935.6953 4389.931 3974.876 4315.695 C 4001.9008 4264.5064 4029.4474 4206.994 4043.6531 4150.175 C 4063.1921 4071.954 4065.7864 3987.901 4087.2798 3910.545 C 4125.596 3772.595 4188.6168 3636.655 4202.5748 3493.04 C 4208.8262 3428.8343 4207.8357 3374.236 4198.0529 3310.229 C 4193.7062 3281.8747 4188.7919 3247.3985 4163.0472 3229.528 C 4131.9691 3207.947 4104.3501 3226.347 4097.1615 3260.8194 C 4087.5996 3306.6975 4090.9596 3350.5261 4086.4644 3396.6934 C 4083.0053 3432.3086 4069.9882 3465.9429 4061.3406 3500.4494 C 4037.0549 3597.638 3978.8758 3691.6574 3936.1906 3782.0794 C 3899.6268 3859.5042 3897.3792 3952.6164 3861.2344 4029.1234 C 3828.183 4099.1348 3772.202 4150.1024 3720.8424 4206.9934 C 3681.3872 4250.6963 3646.8995 4299.6372 3610.0924 4345.3404 C 3602.9762 4354.1594 3579.5324 4387.3366 3567.6772 4387.3366 C 3551.1972 4387.3366 3409 4569 3367 4585 C 3353 4590 3342 4571 3335 4563 C 3312 4532 3289 4501 3267 4469 C 3226 4412 3173 4347 3155 4279 C 3139 4217 3152 4144 3153 4081 C 3153 4045 3157 4009 3166 3975 C 3167 3969 3170 3944 3173 3940 C 3191 3899 3259.6845 3648.1827 3274.5073 3577.0357 C 3285.3035 3525.2643 3315.3454 3477.9995 3329.6997 3426.3387 C 3358.1568 3323.8887 3367.593 3216.2587 3390.6178 3112.5937 C 3400.153 3069.7137 3448.5988 2993.9917 3419.0292 2952.0147 C 3392.2978 2914.0528 3336.614 2918.1176 3318.9762 2961.8966 C 3278.4619 3062.5256 3278.2638 3177.9916 3236.2181 3275.6416 C 3224.3362 3303.2873 3217.0448 3331.6949 3206.1762 3359.6378 C 3204.3743 3364.2549 3196 3377 3194 3386 C 3145 3486 3135 3519 3120 3589 C 3113.9328 3632.338 3093.228 3668.8294 3076.8737 3717.8461 C 3060.7442 3766.2994 3048.7137 3817.149 3032.4051 3866.0751 C 2985.8641 4005.7591 2961.2584 4143.2061 2969.8299 4290.9891 C 2976.2794 4402.0821 3007.727 4509.7201 3059.1861 4607.2021 C 3084.9042 4655.9716 3154.668 4712.3451 3160.0551 4767.7811 C 3168.4551 4854.2954 3113.1675 4915.2901 3076.4818 4987.6511 C 3067.1903 5005.9787 3036.7561 5062.3787 3016.7713 5068.7521 C 2966.3218 5084.8359 2898.9043 5051.8073 2848.7793 5046.9388 C 2766.1203 5038.9121 2671.3053 5025.5445 2596.7943 4985.1788 C 2498.9429 4932.1655 2436.5693 4774.2038 2426.3373 4668.9658 C 2422.7373 4631.9563 2426.1963 4594.6306 2420.5734 4557.7958 C 2395.7315 4395.2168 2407.5448 4226.4858 2373.6363 4063.7078 C 2339.3392 3899.0978 2290.3106 3726.7708 2287.9906 3559.7378 C 2287.6821 3537.273 2278.3564 3515.9016 2280.5811 3493.0368 C 2294.2382 3352.5718 2322.2763 3211.5398 2353.0459 3073.0638 C 2375.8078 2970.6368 2413.4573 2860.3518 2409.0421 2754.3778 C 2405.964 2680.4349 2408.8326 2606.0958 2401.6326 2532.0388 C 2389.4269 2406.5148 2362.2574 2279.2428 2333.2821 2156.5338 C 2322.3335 2110.1567 2308.9431 2055.9548 2278.524 2018.1868 C 2264.1659 2000.3697 2246.7145 1981.6001 2221.2897 1986.8954 Z"
        style="fill: rgb(16, 14, 12); stroke: rgb(19, 21, 22); stroke-width: 0.967619;"/>
</g>
</svg>
